**kern	**kern
*staff1	*staff1
*head1[head1]	*head1[head1]
*solo1[solo1]	*solo1[solo1]
*solo2[solo2]	*solo2[solo2]
*solo3[solo3]	*solo3[solo3]
*solo4[solo4]	*solo4[solo4]
=1-	=1-
*clefG2	*clefG2
*k[]	*k[]
*B-:	*B-:
*M4/4	*M4/4
1r	.
=2	=2
1r	.
=3	=3
1r	.
=4	=4
2r	1B-:dom
4r	.
8r	.
*>head1	*>head1
{[8b-\	.
=5	=5
4b-\]	1B-:dom
8a/L	.
8f#/J	.
8g\L	.
8b-\	.
8cc\	.
8dd\J	.
=6	=6
4ee-\	1E-:dom
8r	.
[8g-/	.
8g-\L]	.
[8dd-\	.
8dd-\]	.
8b-\J	.
=7	=7
12cc\L	1B-:maj
12dd-\	.
12cc\J	.
8b-/L	.
8g/J	.
4b-\	.
12f/L	.
12a-/	.
12ee-/J	.
=8	=8
8gg\L	2F:min
8ff\J	.
4gg\	.
8r	2B-:dom
[8ff\L	.
8ff\]	.
8ee-\J	.
=9	=9
4ff\	1E-:dom
8r	.
[8b-\	.
8b-\L]	.
[8cc\	.
8cc\]	.
[8b-\J	.
=10	=10
8b-\L]	1E-:dom
[8ff\	.
8ff\]	.
8ee-\J	.
8b-/L	.
8g-/	.
8dd/	.
[8a/J	.
=11	=11
4a/]	1B-:maj
8r	.
8ff\	.
4cc\	.
8r	.
8ff\	.
=12	=12
12dd\L	2B-:maj
12ee-\	.
12ff\J	.
16dd\LL	.
16b-\J	.
8ee-\J	.
4r	2G:dom
8r	.
[8dd\	.
=13	=13
8dd\L]	1C:min
[8b-\	.
8b-\]	.
8g\J	.
8b-/L	.
8g/J	.
4b-\	.
=14	=14
8r	1F:dom
[8b-\L	.
8b-\]	.
8g\J	.
4b-\	.
8r	.
[8dd\	.
=15	=15
4dd\]	1B-:dom
8b-/L	.
8f/J	.
24a-/LL	.
24b-/	.
24a-/JJ	.
8f/L	.
8g/	.
[8f/J	.
=16	=16
4f/]	1B-:dom
8r	.
8f/	.
24a-/LL	.
24b-/	.
24a-/JJ	.
8f/L	.
8an/	.
8b-/J}	.
=17	=17
4r	1B-:dom
8r	.
*>solo1	*>solo1
{8c/	.
24B-/LL	.
24c/	.
24B-/JJ	.
8A/L	.
8c/	.
[8B-/J	.
=18:|!	=18:|!
8B-/L]	1E-:dom
8G/J	.
12c/L	.
12e-/	.
12g/J	.
8b-/L	.
8g-/	.
8e-/	.
8B-/J	.
=19	=19
4.d/	1B-:dom
[8f/	.
4f/]}	.
4r	.
=20	=20
2r	2F:min
8.r	2B-:dom
{32g/LLL	.
32a-/JJ	.
8g/	.
16f/L	.
16e/JJ	.
=21	=21
16e-/LL	1E-:dom
16c/	.
16B-/	.
16A-/JJ	.
16G/LL	.
16B-/	.
16c/	.
16e-/JJ	.
16b-/LL	.
16g-/	.
16d/	.
16B-/JJ	.
4c/	.
=22	=22
8r	1E-:dom
8F#/	.
16G/LL	.
16B-/	.
16c/	.
16d/JJ	.
4f/	.
8e-/L	.
8G-/J	.
=23	=23
8F/L	1B-:maj
8e-/J	.
12c/L	.
12c#/	.
12d/J	.
4a/}	.
4r	.
=24	=24
2r	2D:min
4r	2D-:min
{16b-/LL	.
16a-/	.
16e-/	.
16c/JJ	.
=25	=25
16b-/LL	1C:min
16a/	.
16g/	.
16g-/JJ	.
16f/LL	.
16e/	.
16e-/	.
16G/JJ	.
4B-/	.
4r	.
=26	=26
8r	1F:dom
24d/LL	.
24c/	.
24B-/JJ	.
8G/L	.
16c/L	.
16B-/JJ	.
4A/	.
8g-/L	.
16e-/L	.
16en/JJ	.
=27	=27
4f/	1B-:maj
8r	.
8b-\	.
8a\L	.
16b-\L	.
16cc\J	.
8b-\J	.
8r	.
=28	=28
4r	2C:min
8f/L	.
8b-/J	.
8dd\L	2F:dom
8ee-\	.
8dd\	.
8cc\J	.
=29	=29
8b-/L	1B-:dom
8a/	.
8a-/J	.
8r	.
8bn\L	.
16cc\L	.
16b\J	.
8g\	.
[8f\J	.
=30||	=30||
4f/]	1E-:dom
8e-/L	.
8B-/J	.
8c/L	.
8d-/J	.
24B-/LL	.
24c/	.
24B-/JJ	.
8G/	.
=31	=31
4.d/	1B-:maj
8f/	.
8c/L	.
[8A-/J	.
4A-/]}	.
=32	=32
2r	2F:min
4r	2B:dom
8r	.
{24b-\LL	.
24b-\	.
24b-\JJ	.
=33	=33
24cc#\LL1E-:dom	.
24dd\	.
24cc#\JJ	.
[8b-\L	.
8b-\]	.
8cc#\J	.
4r	.
8r	.
8b-\	.
=34	=34
24a-/LL	1E-:dom
24b-/	.
24a-/JJ	.
8f/L	.
8e-/	.
8B-/J	.
8c/L	.
8d-/	.
8B-/	.
8G/J	.
=35	=35
8c/L	1B-:dom
8A/J	.
12B-/L	.
12d/	.
12f/J	.
8a/L	.
8a-/	.
8g/	.
8g-/J	.
=36	=36
8f/	2B-:dom
8r	.
24a-/LL	.
24b-/	.
24a-/JJ	.
8g/	.
4f/	2G:dom
8e-/L	.
8d/J	.
=37	=37
8B/L	1C:min
[8c/J	.
4c/]}	.
2r	.
=38	=38
8r	1F:dom
{8d/L	.
8e-/	.
8f/J	.
12g-/L	.
12a-/	.
12g-/J	.
8f/L	.
8e-/J	.
=39	=39
[4d/	1B-:dom
8d/L]	.
16f/L	.
16d/JJ	.
8c/L	.
[8F/J	.
4F/]}	.
=40	=40
2r	2C:min
4r	2F:dom
*>solo2	*>solo2
{12f\L	.
12b-\	.
12dd\J	.
=41	=41
8ff\L	1B-:dom
8ee-\	.
8dd\	.
8b-\J	.
4r	.
8r	.
24b-\LL	.
24b-\	.
24b-\JJ	.
=42||	=42||
8ee\L	1E-:dom
[8ee-\J	.
4ee-\]	.
4r	.
8r	.
8b-\	.
=43	=43
4dd\	1B-:dom
24b-\LL	.
24cc\	.
24b-\JJ	.
8f/	.
8cc/L	.
8f/	.
8g/	.
8a-/J}	.
=44	=44
2r	2F:min
8r	2B-:dom
{4.cc\	.
=45	=45
8b-\L	1E-:dom
16cc\L	.
16b-\J	.
8g\	.
8f\J	.
8e-/L	.
8A/	.
8B-/	.
8c/J	.
=46	=46
8d-/L	1E-:dom
8B-/J	.
2c/	.
24B-/LL	.
24c/	.
24B-/JJ	.
8G/	.
=47	=47
[4d/	1B-:dom
8d/L]	.
16f/L	.
16a/JJ	.
8cc\L	.
8b-\J	.
24a/LL	.
24b-/	.
24a/JJ	.
8g/	.
=48	=48
4d/	2B-:dom
4r	.
8r	2G:dom
16a-/LL	.
16g/JJ	.
16f/LL	.
16e-/	.
16d/	.
16c/JJ	.
=49	=49
16B/LL	1C:min
16A-/	.
16G/	.
16F/JJ	.
4E-/}	.
4r	.
8r	.
{24dd\LL	.
24cc\	.
24b-\JJ	.
=50	=50
8g/L	1F:dom
8f/	.
8e-/	.
8G/J	.
8B-/L	.
8d/	.
8c/	.
8B-/J	.
=51	=51
16A/LL	1B-:dom
16c/	.
16e-/	.
16g-/J	.
8f/	.
8A/J	.
8B-/L	.
8e-/	.
8d/	.
8B-/J	.
=52	=52
4e-/}	1F:dom
4r	.
8r	.
{4.d/	.
=53	=53
*>solo3	*>solo3
4b-\	1B-:maj
2b-\	.
4r	.
=54||	=54||
8a-/L	1E-:dom
8b-/	.
8a-/	.
8g/J	.
8f/L	.
8f/	.
8e-/	.
8B-/J	.
=55	=55
4d/	1B-:dom
8f/L	.
8e-/J	.
8d/	.
4.A-/}	.
=56	=56
4r	1B-:dom
8r	.
{[8b-\	.
4b-\]	.
8cc\L	.
8b-\J	.
=57	=57
8dd-/L	1E-:dom
[8e-/J	.
4e-/]}	.
2r	.
=58	=58
4r	1E-:dom
8r	.
{8cc\	.
24dd-\LL	.
24cc\	.
24b-\JJ	.
8a-/	.
12f/L	.
12e-/	.
12B-/J	.
=59	=59
4.d/	1B-:maj
8f/}	.
2r	.
=60	=60
2r	2D:min
2r	2G:dom
=61	=61
{8a/L	1C:min
16cc/L	.
16a/JJ	.
16b/LL	.
16a-/	.
16e/	.
16c#/JJ	.
16b-/LL	.
16an/	.
16g/	.
16g-/JJ	.
16f/LL	.
16e/	.
16e-/	.
16G/JJ	.
=62	=62
24B-/LL	1F:dom
24c/	.
24d/JJ	.
16c/LL	.
16B-/JJ	.
16A/LL	.
16f#/	.
16e-/	.
16en/JJ	.
16fn/LL	.
16A/	.
16B-/	.
16e-/JJ	.
16c/LL	.
16c#/	.
16d/	.
16B-/JJ	.
=63	=63
16c/LL	2B-:maj
16B-/	.
16A/	.
16B-/JJ	.
16d/LL	.
16f/	.
16g/	.
16a/JJ	.
16cc/LL	1D-:min
16a/	.
16b/	.
16a-/JJ	.
16e/LL	.
16c#/	.
16b-/	.
16an/JJ	.
=64	=64
16g/LL	2C:min
16g-/	.
16f/	.
16e/JJ	.
4e-/	.
8r	2F:dom
8d/	.
16f/LL	.
16e-/	.
16d/	.
16c/JJ	.
=65	=65
16A/LL	1B-:maj
16B-/	.
16c/	.
16A/JJ	.
16B-/LK	.
[8.F/J	.
4F/]}	.
4r	.
==	==
*-	*-
